src/dsmComponents/Icons/people-2-20px.svg

<?xml version="1.0" encoding="UTF-8"?>
<svg width="20px" height="20px" viewBox="0 0 20 20" version="1.1" xmlns="http://www.w3.org/2000/svg" xmlns:xlink="http://www.w3.org/1999/xlink">
    <!-- Generator: Sketch 59.1 (86144) - https://sketch.com -->
    <title>people-2-20px</title>
    <desc>Created with Sketch.</desc>
    <defs>
        <path d="M12.5,6.66666667 C13.8808333,6.66666667 15,7.78583333 15,9.16666667 L15,14.1666667 L12.5,14.1666667 L12.5,19.1666667 C12.5,19.6266667 12.1266667,20 11.6666667,20 L8.33333333,20 C7.87333333,20 7.5,19.6266667 7.5,19.1666667 L7.5,14.1666667 L5,14.1666667 L5,9.16666667 C5,7.78583333 6.11916667,6.66666667 7.5,6.66666667 L12.5,6.66666667 Z M4.18833333,6.66666667 C3.65916667,7.365 3.33333333,8.225 3.33333333,9.16666667 L3.33333333,9.16666667 L3.33333333,15.8333333 L5,15.8333333 L5,17.5 C5,17.96 4.62666667,18.3333333 4.16666667,18.3333333 L4.16666667,18.3333333 L2.5,18.3333333 C2.04,18.3333333 1.66666667,17.96 1.66666667,17.5 L1.66666667,17.5 L1.66666667,13.3333333 L0,13.3333333 L0,8.33333333 C0,7.4125 0.745833333,6.66666667 1.66666667,6.66666667 L1.66666667,6.66666667 Z M18.3333333,6.66666667 C19.2541667,6.66666667 20,7.4125 20,8.33333333 L20,13.3333333 L18.3333333,13.3333333 L18.3333333,17.5 C18.3333333,17.96 17.96,18.3333333 17.5,18.3333333 L15.8333333,18.3333333 C15.3733333,18.3333333 15,17.96 15,17.5 L15,15.8333333 L16.6666667,15.8333333 L16.6666667,9.16666667 C16.6666667,8.225 16.3408333,7.365 15.8116667,6.66666667 L18.3333333,6.66666667 Z M16.6666667,2.5 L16.8105239,2.50611484 C17.6639428,2.57899354 18.3333333,3.29429825 18.3333333,4.16666667 L18.3333333,4.16666667 L18.3272185,4.31052389 C18.2543398,5.16394275 17.5390351,5.83333333 16.6666667,5.83333333 L16.6666667,5.83333333 L16.5228094,5.8272185 C15.6693906,5.7543398 15,5.03903509 15,4.16666667 L15,4.16666667 L15.0061148,4.02280945 C15.0789935,3.16939058 15.7942982,2.5 16.6666667,2.5 L16.6666667,2.5 Z M3.33333333,2.5 C4.20570175,2.5 4.92100646,3.16939058 4.99388516,4.02280945 L5,4.16666667 C5,5.03903509 4.33060942,5.7543398 3.47719055,5.8272185 L3.33333333,5.83333333 C2.46096491,5.83333333 1.7456602,5.16394275 1.6727815,4.31052389 L1.66666667,4.16666667 C1.66666667,3.29429825 2.33605725,2.57899354 3.18947611,2.50611484 L3.33333333,2.5 Z M10,0 C11.3256,0 12.410048,1.031424 12.4946829,2.33561088 L12.5,2.5 C12.5,3.8256 11.468576,4.910048 10.1643891,4.99468288 L10,5 C8.6744,5 7.589952,3.968576 7.50531712,2.66438912 L7.5,2.5 C7.5,1.1744 8.531424,0.089952 9.83561088,0.00531712 L10,0 Z" id="path-1"></path>
    </defs>
    <g id="Final" stroke="none" stroke-width="1" fill="none" fill-rule="evenodd">
        <g id="All-Nucleo-Icons" transform="translate(-463.000000, -5270.000000)">
            <g id="Solo/Nucleo/20px/people-2" transform="translate(461.000000, 5268.000000)">
                <g transform="translate(2.000000, 2.000000)" id="multiple-11">
                    <g>
                        <g id="Colour/Default-Colour">
                            <mask id="mask-2" fill="white">
                                <use xlink:href="#path-1"></use>
                            </mask>
                            <g id="Mask" fill-rule="nonzero"></g>
                            <g id="colour/neutral/chia" mask="url(#mask-2)" fill="#737373">
                                <g transform="translate(-22.000000, -22.000000)" id="Colour">
                                    <rect x="0" y="0" width="64" height="64"></rect>
                                </g>
                            </g>
                        </g>
                    </g>
                </g>
            </g>
        </g>
    </g>
</svg>

<svg width="20" height="20" xmlns="http://www.w3.org/2000/svg" xmlns:xlink="http://www.w3.org/1999/xlink"><defs><path d="M12.5 6.667a2.5 2.5 0 012.5 2.5v5h-2.5v5c0 .46-.373.833-.833.833H8.333a.834.834 0 01-.833-.833v-5H5v-5a2.5 2.5 0 012.5-2.5h5zm-8.312 0a4.124 4.124 0 00-.855 2.5v6.666H5V17.5c0 .46-.373.833-.833.833H2.5a.834.834 0 01-.833-.833v-4.167H0v-5c0-.92.746-1.666 1.667-1.666zm14.145 0c.921 0 1.667.745 1.667 1.666v5h-1.667V17.5c0 .46-.373.833-.833.833h-1.667A.834.834 0 0115 17.5v-1.667h1.667V9.167c0-.942-.326-1.802-.855-2.5h2.521zM16.667 2.5l.144.006a1.666 1.666 0 011.522 1.66l-.006.145a1.666 1.666 0 01-1.66 1.522l-.144-.006A1.666 1.666 0 0115 4.167l.006-.144a1.666 1.666 0 011.66-1.523zm-13.334 0c.873 0 1.588.67 1.66 1.523L5 4.167c0 .872-.67 1.587-1.523 1.66l-.144.006c-.872 0-1.587-.67-1.66-1.522l-.006-.144c0-.873.67-1.588 1.522-1.66l.144-.007zM10 0a2.5 2.5 0 012.495 2.336l.005.164a2.5 2.5 0 01-2.336 2.495L10 5a2.5 2.5 0 01-2.495-2.336L7.5 2.5A2.5 2.5 0 019.836.005L10 0z" id="people-2-20px_svg__a"/></defs><use fill="#737373" xlink:href="#people-2-20px_svg__a" fill-rule="evenodd"/></svg>
